lib/healthicons/icons/outline/specialties/gastroenterology.svg

<svg fill="none" height="48" viewBox="0 0 48 48" width="48" xmlns="http://www.w3.org/2000/svg"><g fill="#333"><path clip-rule="evenodd" d="m39 8h-30c-.55229 0-1 .44772-1 1v30c0 .5523.44772 1 1 1h30c.5523 0 1-.4477 1-1v-30c0-.55229-.4477-1-1-1zm-30-2c-1.65685 0-3 1.34315-3 3v30c0 1.6569 1.34315 3 3 3h30c1.6569 0 3-1.3431 3-3v-30c0-1.65685-1.3431-3-3-3z" fill-rule="evenodd"/><path clip-rule="evenodd" d="m17.3142 6.8451c0 .16015.0007 3.7518.0021 3.8954.0337 3.6077.5007 5.3762 1.4179 6.3213.8056.8302 2.1637 1.232 4.7141 1.3074.2019-2.0358 1.0138-3.6602 2.2069-4.8175 1.3731-1.3319 3.1915-1.9865 4.9913-1.9865 1.7999 0 3.6182.6546 4.9914 1.9865 1.3849 1.3433 2.2561 3.316 2.2561 5.8307v8.3322c0 2.3547-.391 4.8461-1.6023 6.78-1.2566 2.0061-3.3353 3.3097-6.4095 3.3097-3.1633 0-5.3592-1.8827-7.2995-3.5568l-.0618-.0534c-1.9755-1.7046-3.7518-3.2375-6.2707-3.5854-1.0578.011-1.793.2946-2.3214.6816-.5485.4018-.9422.9654-1.2207 1.6172-.5693 1.3324-.5881 2.8677-.5606 3.5274.0055.1308.0083 1.5481.0103 2.88.0009.6777.0017 1.3488.0021 1.8504l.0007.8331-2 .0022-.0007-.8334c-.0004-.5015-.0012-1.1722-.0021-1.8494-.001-.6773-.0023-1.3606-.0038-1.8874-.0008-.2636-.0016-.4872-.0026-.6511-.0004-.0821-.0009-.1482-.0014-.1964-.0003-.0326-.0006-.0512-.0007-.06-.0001-.0064-.0001-.0075 0-.0047-.0312-.7479-.0281-2.6467.7197-4.3966.38-.8893.9687-1.7787 1.878-2.4448.919-.6731 2.0984-1.0685 3.5672-1.0685.3948 0 .7599.0089 1.1069.0173.6319.0153 1.2039.0292 1.7871-.0145.8513-.0638 1.5204-.2472 2.0646-.6551 1.0265-.7694 2.0015-2.6548 2.1153-7.587-2.6478-.0756-4.7131-.4964-6.0892-1.9143-1.5299-1.5765-1.9492-4.1242-1.9825-7.6955-.0015-.1561-.0022-3.76448-.0022-3.9141zm3.5635 23.4989c1.0394.6846 1.9557 1.4766 2.8085 2.2138.0681.0588.1357.1174.2031.1754 2.0103 1.7346 3.673 3.0711 5.9929 3.0711 2.4088 0 3.8359-.9688 4.7145-2.3714.9238-1.4747 1.2973-3.5281 1.2973-5.7183v-8.3322c0-2.03-.6907-3.466-1.6486-4.3951-.9696-.9405-2.275-1.4221-3.5989-1.4221-1.3238 0-2.6292.4816-3.5988 1.4221-.9579.9291-1.6486 2.3651-1.6486 4.3951 0 5.6897-.9872 8.7202-2.9268 10.1739-.5055.379-1.0457.6265-1.5946.7877z" fill-rule="evenodd"/><path d="m36.894 25.0635c-4.5448 3.9359-7.196-3.9359-12.877 0l-1.515 3.0299-3.7873 1.8937s7.196 6.8172 11.3621 6.8172 7.5747-3.7873 6.8172-11.7408z"/></g></svg>

<svg width="48" height="48" viewBox="0 0 48 48" fill="none" xmlns="http://www.w3.org/2000/svg">
<path fill-rule="evenodd" clip-rule="evenodd" d="M6 39C6 40.6569 7.34315 42 9 42H39C40.6569 42 42 40.6569 42 39V9C42 7.34315 40.6569 6 39 6H9C7.34315 6 6 7.34315 6 9V39ZM40 9C40 8.44771 39.5523 8 39 8H17.3145C17.3148 9.11598 17.3154 10.6477 17.3163 10.7405C17.35 14.3482 17.817 16.1167 18.7342 17.0618C19.5398 17.892 20.8979 18.2938 23.4483 18.3692C23.6502 16.3334 24.4621 14.709 25.6552 13.5517C27.0283 12.2198 28.8467 11.5652 30.6465 11.5652C32.4464 11.5652 34.2647 12.2198 35.6379 13.5517C37.0228 14.895 37.894 16.8677 37.894 19.3824V27.7146C37.894 30.0693 37.503 32.5607 36.2917 34.4946C35.0351 36.5007 32.9564 37.8043 29.8822 37.8043C26.7189 37.8043 24.523 35.9216 22.5827 34.2475L22.5209 34.1941C20.5454 32.4895 18.7691 30.9566 16.2502 30.6087C15.1924 30.6197 14.4572 30.9033 13.9288 31.2903C13.3803 31.6921 12.9866 32.2557 12.7081 32.9075C12.1388 34.2399 12.12 35.7752 12.1475 36.4349C12.153 36.5657 12.1558 37.983 12.1578 39.3149L12.1587 40H39C39.5523 40 40 39.5523 40 39V9ZM8 9C8 8.44772 8.44771 8 9 8H15.3145C15.3148 9.11892 15.3154 10.6584 15.3164 10.7592C15.3497 14.3305 15.769 16.8782 17.2989 18.4547C18.675 19.8726 20.7403 20.2934 23.3881 20.369C23.2743 25.3012 22.2993 27.1866 21.2728 27.956C20.7286 28.3639 20.0595 28.5473 19.2082 28.6111C18.625 28.6548 18.053 28.6409 17.4211 28.6256C17.0741 28.6172 16.709 28.6083 16.3142 28.6083C14.8454 28.6083 13.666 29.0037 12.747 29.6768C11.8377 30.3429 11.249 31.2323 10.869 32.1216C10.1212 33.8715 10.1181 35.7703 10.1493 36.5182C10.1492 36.5154 10.1492 36.5165 10.1493 36.5229L10.15 36.5829C10.1505 36.6311 10.151 36.6972 10.1514 36.7793C10.1524 36.9432 10.1532 37.1668 10.154 37.4304C10.1555 37.9572 10.1568 38.6405 10.1578 39.3178L10.1587 40H9C8.44772 40 8 39.5523 8 39V9ZM25.0307 24.4664C27.426 23.3089 29.2699 24.2451 31.01 25.1287C32.6098 25.941 34.1219 26.7088 35.894 25.7637V19.3824C35.894 17.3524 35.2033 15.9164 34.2454 14.9873C33.2758 14.0468 31.9704 13.5652 30.6465 13.5652C29.3227 13.5652 28.0173 14.0468 27.0477 14.9873C26.0898 15.9164 25.3991 17.3524 25.3991 19.3824C25.3991 21.3933 25.2758 23.072 25.0307 24.4664Z" fill="#333333"/>
</svg>
